FINK
CUT[O ICH BETRUEBTER FREIERSMANN]
REG[Europa, Mitteleuropa, Deutschland]
KEY[F0802  08  C 4/4]
MEL[-5_  1_.11_1_  3_.33_
    3_  5_.22_12  3_0_
    5__  4_3_2_1_  -7_.-3-3_
    3_  3_3_3_.2#  3__0_
    -7_  -7_.-7-7_1#_  2_.22_
    4_  6_5_4_3_  2_.22_
    -5_  5_.32_.4  3__0_ //] >>
FCT[Geselligkeits - Lied, national]
